assets/icons/qvision/access_alarms.svg

<svg width="24" height="24" viewBox="0 0 24 24" fill="none" xmlns="http://www.w3.org/2000/svg">
<g clip-path="url(#clip0_147_2312)">
<path d="M22 5.69999L17.4 1.79999L16.1 3.29999L20.7 7.19999L22 5.69999ZM7.9 3.39999L6.6 1.89999L2 5.69999L3.3 7.19999L7.9 3.39999ZM12.5 7.99999H11V14L15.7 16.9L16.5 15.7L12.5 13.3V7.99999ZM12 3.99999C7 3.99999 3 7.99999 3 13C3 18 7 22 12 22C17 22 21 18 21 13C21 7.99999 17 3.99999 12 3.99999ZM12 20C8.1 20 5 16.9 5 13C5 9.09999 8.1 5.99999 12 5.99999C15.9 5.99999 19 9.09999 19 13C19 16.9 15.9 20 12 20Z" fill="#323232"/>
</g>
<defs>
<clipPath id="clip0_147_2312">
<rect width="24" height="24" fill="white"/>
</clipPath>
</defs>
</svg>

<svg xmlns="http://www.w3.org/2000/svg" height="24" viewBox="0 0 24 24" width="24"><path d="M-618-568H782v3600H-618zM0 0h24v24H0z" fill="none"/><path d="M22 5.7l-4.6-3.9-1.3 1.5 4.6 3.9L22 5.7zM7.9 3.4L6.6 1.9 2 5.7l1.3 1.5 4.6-3.8zM12.5 8H11v6l4.7 2.9.8-1.2-4-2.4V8zM12 4c-5 0-9 4-9 9s4 9 9 9 9-4 9-9-4-9-9-9zm0 16c-3.9 0-7-3.1-7-7s3.1-7 7-7 7 3.1 7 7-3.1 7-7 7z"/></svg>
